src/assets/img/formElement.svg

<?xml version="1.0" encoding="UTF-8"?>
<!DOCTYPE svg PUBLIC "-//W3C//DTD SVG 1.1//EN" "http://www.w3.org/Graphics/SVG/1.1/DTD/svg11.dtd">
<svg xmlns="http://www.w3.org/2000/svg" xmlns:xlink="http://www.w3.org/1999/xlink" version="1.1" width="24" height="24" viewBox="0 0 24 24">
  <path fill="#929191" d="M3,5H9V11H3V5M5,7V9H7V7H5M11,7H21V9H11V7M11,15H21V17H11V15M5,20L1.5,16.5L2.91,15.09L5,17.17L9.59,12.59L11,14L5,20Z" />
</svg>

<?xml version="1.0" encoding="utf-8"?>
<!-- Generator: Adobe Illustrator 22.0.1, SVG Export Plug-In . SVG Version: 6.00 Build 0)  -->
<svg version="1.1" id="Calque_1" xmlns="http://www.w3.org/2000/svg" xmlns:xlink="http://www.w3.org/1999/xlink" x="0px" y="0px"
	 viewBox="0 0 24 24" style="enable-background:new 0 0 24 24;" xml:space="preserve">
<style type="text/css">
	.st0{fill:#FFFFFF;}
</style>
<path class="st0" d="M3,5h6v6H3V5 M5,7v2h2V7H5 M11,7h10v2H11V7 M11,15h10v2H11V15 M5,20l-3.5-3.5l1.4-1.4L5,17.2l4.6-4.6L11,14
	L5,20z"/>
</svg>
